X: 11783
Q: "Slow with feeling."
M: C
L: 1/8
K: G
d2 |\
(d3c) (BA)(GF) | G2B2 c3B |\
e3d c2(de) | d4 z2f2 |\
(g2f2 e2)B2 | c3d A2GF |\
d2 |\
g3e af3 | (g2d2) c3B |\
c2e2 a3g | {g2}f4 z2g2 |\
e2c2 A2B2 | c2(de) d3c |\
(B2A2 G2)F2 | G4 z2 |]


